!!!!SEGMENT: artfugue-019.krn
!!!COM: Bach, Johann Sebastian
!!!CDT: 1685/03/31-1750/07/28
!!!OPR@@DE: Die Kunst der Fuge
!!!OPR@EN: The Art of the Fugue
!!!OTL: Contrapunctus XIX: Quadruple Fugue on the name B-A-C-H
!!!SCA: BWV 1080
!!!voices: 4
!!!AGN: Quadruple Fugue
**kern	**kern	**kern	**kern
*part4	*part3	*part2	*part1
*staff4	*staff3	*staff2	*staff1
*I"	*I"	*I"	*I"
*clefF4	*clefC4	*clefC3	*clefC1
*mclefF4	*mclefGv2	*mclefG2	*mclefG2
*k[b-]	*k[b-]	*k[b-]	*k[b-]
*d:	*d:	*d:	*d:
*M4/4	*M4/4	*M4/4	*M4/4
*met(c)	*met(c)	*met(c)	*met(c)
*mmet(c)	*mmet(c)	*mmet(c)	*mmet(c)
*MM208	*MM208	*MM208	*MM208
=1	=1	=1	=1
!!LO:MO:ori
!!LO:TX:a:t=XIXa
!!LO:MO:mod
!! !!LO:TX:a:t=First subject
!!LO:MO:end
2r	1r	1r	1r
2D	.	.	.
=2	=2	=2	=2
2.A	1r	1r	1r
4G	.	.	.
=3	=3	=3	=3
1F	1r	1r	1r
=4	=4	=4	=4
1G	1r	1r	1r
=5	=5	=5	=5
1A	1r	1r	1r
=6	=6	=6	=6
2D	2r	1r	1r
[2F	2A	.	.
=7	=7	=7	=7
4F]	2.d	1r	1r
4BBX	.	.	.
2E	.	.	.
.	4d	.	.
=8	=8	=8	=8
4AA	1c	1r	1r
4E	.	.	.
4A	.	.	.
4G	.	.	.
=9	=9	=9	=9
4F	1d	1r	1r
4D	.	.	.
4B-	.	.	.
4A	.	.	.
=10	=10	=10	=10
4G	1e	1r	1r
4E	.	.	.
4C#X	.	.	.
8DL	.	.	.
8EJ	.	.	.
!!LO:LB:g=original
=11	=11	=11	=11
4F	2A	2r	1r
4D	.	.	.
4C	[2d	2d	.
4BB-	.	.	.
=12	=12	=12	=12
4AA	2d]	2.a	1r
4GG	.	.	.
2AA	2c#X	.	.
.	.	4g	.
=13	=13	=13	=13
2.DD	4d	1f	1r
.	4A	.	.
.	[2B-	.	.
4D	.	.	.
=14	=14	=14	=14
2.E	4B-]	1g	1r
.	4G	.	.
.	[2c	.	.
8DL	.	.	.
8EJ	.	.	.
=15	=15	=15	=15
2F	4c]	1a	1r
.	4A	.	.
2F#X	4d	.	.
.	[4c	.	.
=16	=16	=16	=16
2.G	4c]	[1d	2r
.	4B-	.	.
.	[2A	.	2a
8F#XL	.	.	.
8EJ	.	.	.
=17	=17	=17	=17
2F#X	4A]	2d]	2.dd
.	8BXL	.	.
.	8cJ	.	.
2G#X	2B	[2e	.
.	.	.	4dd
=18	=18	=18	=18
2A	2.A	4e]	1cc
.	.	4c	.
2r	.	[2f	.
.	4A	.	.
=19	=19	=19	=19
1r	2.B-	4f]	1dd
.	.	4d	.
.	.	[2g	.
.	4BX	.	.
!!LO:LB:g=original
=20	=20	=20	=20
1r	2c	4g]	1ee
.	.	4e	.
.	2c#X	4a	.
.	.	[4g	.
=21	=21	=21	=21
2r	4d	4g]	2.a
.	4A	8fL	.
.	.	8eJ	.
2D	2d	2f	.
.	.	.	4bX
=22	=22	=22	=22
2.AA	2c	4e	2.cc
.	.	8dL	.
.	.	8eJ	.
.	2r	[2f	.
4BBX	.	.	4dd
=23	=23	=23	=23
1C	1r	4f]	2g
.	.	2e-	.
.	.	.	2f#X
.	.	4d	.
=24	=24	=24	=24
1BB-X	2r	8dL	2g
.	.	8eJ	.
.	.	2f	.
.	2D	.	2g#X
.	.	8eL	.
.	.	8dJ	.
=25	=25	=25	=25
1AA	2.A	4c	8a
.	.	.	4cc
.	.	4d	.
.	.	.	8bX
.	.	2e	[2cc
.	4G	.	.
=26	=26	=26	=26
1D	1F	2.d	4cc]
.	.	.	8bXL
.	.	.	8aJ
.	.	.	2b
.	.	8eL	.
.	.	8fJ	.
=27	=27	=27	=27
4C	1G	4e	4cc
4D	.	4d	4b-X
[2E-	.	[2c	4a
.	.	.	4g
!!LO:LB:g=original
=28	=28	=28	=28
4E-X]	1A	4c]	2.f#X
4AA	.	8dL	.
.	.	8e-J	.
4D	.	[2d	.
4C	.	.	8gL
.	.	.	8aJ
=29	=29	=29	=29
2BBX	2.D	4d]	2.g
.	.	8eL	.
.	.	8f#XJ	.
[2BB-	.	[2g	.
.	8CL	.	8aL
.	8DJ	.	8b-J
=30	=30	=30	=30
2BB-]	4E	4g]	[1cc
.	8DL	8f#XL	.
.	8EJ	8gJ	.
2AA	4F#X	2a	.
.	8EL	.	.
.	8F#J	.	.
=31	=31	=31	=31
2GG	4G	2.d	4cc]
.	4D	.	8b-L
.	.	.	8aJ
4r	2G	.	2b-
4GG	.	4e	.
=32	=32	=32	=32
2.D	4F	1f	4a
.	8GL	.	8bXL
.	8AJ	.	8cc#XJ
.	[2B-	.	[2dd
8EL	.	.	.
8FJ	.	.	.
=33	=33	=33	=33
2.G	2B-]	1e	4dd]
.	.	.	8eeL
.	.	.	8ddJ
.	[2A	.	2cc#X
8F#XL	.	.	.
8EJ	.	.	.
=34	=34	=34	=34
4F#X	2A]	1d	4dd
4D	.	.	2cc#
[2G	4G	.	.
.	8gL	.	4bX
.	8fJ	.	.
!!LO:LB:g=original
=35	=35	=35	=35
2G]	4e	[1a	2cc#X
.	8dL	.	.
.	8eJ	.	.
4F	2f	.	[2dd
4G	.	.	.
=36	=36	=36	=36
2A	4e	2.a]	2dd]
.	4d	.	.
2AA	2e	.	2cc#X
.	.	[4g	.
=37	=37	=37	=37
2.D	4d	4g]	2dd
.	8AL	8fL	.
.	8GJ	8eJ	.
.	[2A/	2f	2a
4C	.	.	.
=38	=38	=38	=38
4BB-	4A/]	2r	2.dd
4AA	8GL	.	.
.	8FJ	.	.
2BB-	[2G	2d	.
.	.	.	4dd
=39	=39	=39	=39
1AA	4G]	2.a	1cc
.	4C	.	.
.	4F	.	.
.	4E	4g	.
=40	=40	=40	=40
4BB-	4D	1f	1dd
4F	4A	.	.
4B-	4d	.	.
4A	4c	.	.
=41	=41	=41	=41
4G	4B-	1g	1ee
4F	8AL	.	.
.	8GJ	.	.
4E	[2c	.	.
8DL	.	.	.
8CJ	.	.	.
=42	=42	=42	=42
2F	4c]	1a	4a
.	4d	.	4bX
2F#X	8e-L	.	[2cc
.	8c	.	.
.	8BX	.	.
.	8AJ	.	.
!!LO:LB:g=original
=43	=43	=43	=43
2G	[1G	4d	2.cc]
.	.	4e	.
2GG	.	[2f	.
.	.	.	4bX
=44	=44	=44	=44
2.C	1G_	4f]	4cc
.	.	8eL	4g
.	.	8dJ	.
.	.	[2e	[2cc
4BB-	.	.	.
=45	=45	=45	=45
1AA	4G]	4e]	2.cc]
.	8FL	4c	.
.	8GJ	.	.
.	[2A	[2f	.
.	.	.	4a
=46	=46	=46	=46
1BB-	4A]	4f]	[1dd
.	8GL	4d	.
.	8AJ	.	.
.	[2B-	4g	.
.	.	4f	.
=47	=47	=47	=47
1C	2B-]	4e	4dd]
.	.	4d	4g
.	4A	[2e-	4cc
.	4G	.	4b-
=48	=48	=48	=48
2FF	2F	2e-]	4a
.	.	.	4g
2FF#X	2r	4d	[2a
.	.	4c	.
=49	=49	=49	=49
4GG	1r	4BX	2a]
4FFn	.	4A	.
4EE	.	[2B-	4g
4DD	.	.	4f
=50	=50	=50	=50
4CC	1r	2B-]	4e
4GG	.	.	4d
4C	.	4A	[2e-
4BB-	.	4G	.
!!LO:LB:g=original
=51	=51	=51	=51
4AA	1r	4F#X	2e-]
4GG	.	4A	.
4FF#X	.	4d	[2d
4DD	.	4c	.
=52	=52	=52	=52
4GG	1r	4B-	2.d]
4D	.	4A	.
4G	.	2B-	.
4F	.	.	4d
=53	=53	=53	=53
4E	1r	2BX	4g/
4D	.	.	4f
4C	.	[2c	4e
4BB-X	.	.	4g/
=54	=54	=54	=54
4AA	1r	4c]	2.cc
4C	.	4e	.
4F	.	[2a	.
4E	.	.	4cc
=55	=55	=55	=55
4D	2r	4a]	4ff
4E	.	4g	4ee
[2F	2d	4.f	4dd
.	.	.	4cc
.	.	8e	.
=56	=56	=56	=56
4F]	2.G	4d	2bX
2E	.	8eL	.
.	.	8fJ	.
.	.	2g	2cc#X
4E-	4A	.	.
=57	=57	=57	=57
4D	1B-	4f#X	2.dd
8EL	.	8gL	.
8F#XJ	.	8aJ	.
[2G	.	4b-	.
.	.	8aL	8ccL
.	.	8b-J	8ddJ
=58	=58	=58	=58
4G]	1A	2.cc	4ee
4C	.	.	2aa
[2F	.	.	.
.	.	8b-L	[4dd
.	.	8aJ	.
!!LO:LB:g=original
=59	=59	=59	=59
4F]	1G	2.b-	4dd]
8E-L	.	.	2gg
8DJ	.	.	.
2E-	.	.	.
.	.	8aL	[4cc
.	.	8gJ	.
=60	=60	=60	=60
2D	2.d	2f#X	4cc]
.	.	.	2bX
2r	.	[2g	.
.	8eL	.	4b-
.	8dJ	.	.
=61	=61	=61	=61
2r	4c#X	4g]	2a
.	4A	8fnL	.
.	.	8eJ	.
2D	[2d	4f	2r
.	.	8gL	.
.	.	8fJ	.
=62	=62	=62	=62
2.A	4d]	2.e	2r
.	8c#XL	.	.
.	8BXJ	.	.
.	4c#	.	2a
4G	8dL	8fL	.
.	8eJ	8gJ	.
=63	=63	=63	=63
1F	2d	4a	2.dd
.	.	4g	.
.	2A	4f	.
.	.	4e-	4cc
=64	=64	=64	=64
1G	4r	4d	1b-
.	4B-	8gL	.
.	.	8f#XJ	.
.	4e-	[2g	.
.	4d	.	.
=65	=65	=65	=65
1A	4c	2g]	1cc
.	8dL	.	.
.	8e-J	.	.
.	4d	[2f	.
.	4c	.	.
=66	=66	=66	=66
1D	4BX	4f]	1dd
.	4A	8gL	.
.	.	8aJ	.
.	[2B-	4g	.
.	.	4f	.
!!LO:LB:g=original
=67	=67	=67	=67
[1C	2B-]	4e	2g
.	.	4c	.
.	2A	[2f	4a
.	.	.	4b-
=68	=68	=68	=68
1C]	4G	4f]	4cc
.	4B-	8eL	4g
.	.	8dJ	.
.	4A	[2e-	4cc
.	4G	.	4b-
=69	=69	=69	=69
2.D	2F	2e-]	4a
.	.	.	4f
.	2r	2d	[2b-
4E-	.	.	.
=70	=70	=70	=70
4F	1r	1c	2b-]
4C	.	.	.
4F	.	.	2a
4E-	.	.	.
=71	=71	=71	=71
4D	1r	1f	2b-
8CL	.	.	.
8BB-J	.	.	.
4C	.	.	[2a-X
4D	.	.	.
=72	=72	=72	=72
4E-	2r	2.B-	4a-]
4BB-	.	.	8gL
.	.	.	8fJ
[2E-X	2B-	.	4g
.	.	4c	4a
=73	=73	=73	=73
4E-]	2.F	1d	4b-
8DL	.	.	4f
8CJ	.	.	.
4D	.	.	2b-
4EX	4G	.	.
=74	=74	=74	=74
2F	1A	1c	8aL
.	.	.	8b-
.	.	.	8cc
.	.	.	8ddJ
4C	.	.	8ee-L
.	.	.	8a
4D	.	.	8g
.	.	.	8f#XJ
!!LO:LB:g=original
=75	=75	=75	=75
4E-	1G	1B-	2.g
4BB-	.	.	.
[2E-X	.	.	.
.	.	.	8aL
.	.	.	8b-J
=76	=76	=76	=76
4E-]	1F	2.f	4a
2D	.	.	8b-L
.	.	.	8ccJ
.	.	.	[2b-
8CL	.	8e-L	.
8DJ	.	8fJ	.
=77	=77	=77	=77
4E	2.c	2.g	4b-]
8F#XL	.	.	8aL
8GJ	.	.	8b-J
4A	.	.	[2cc
4G	8dL	8f#XL	.
.	8e-J	8gJ	.
=78	=78	=78	=78
4F#X	2.d	2.a	4cc]
4D	.	.	8ddL
.	.	.	8ccJ
[2G	.	.	2b-
.	8e-L	8gL	.
.	8dJ	8fJ	.
=79	=79	=79	=79
2G]	4c	2e-	2a
.	4A	.	.
2F#X	4d	[2d	2aa
.	[4c	.	.
=80	=80	=80	=80
2.G	4c]	2d]	2.dd
.	8B-L	.	.
.	8AJ	.	.
.	2B-	2g	.
4C#X	.	.	4ee
=81	=81	=81	=81
4D	2A	2f	1ff
4E	.	.	.
4F	[2d	2d	.
4G	.	.	.
=82	=82	=82	=82
2.A	4d]	2.a	1ee
.	8c#XL	.	.
.	8BXJ	.	.
.	2c#	.	.
8B-L	.	4g	.
8AJ	.	.	.
!!LO:LB:g=original
=83	=83	=83	=83
4B-	2.d	1f	1dd
4F	.	.	.
[2B-	.	.	.
.	8c#XL	.	.
.	8dJ	.	.
=84	=84	=84	=84
4B-]	2.e-	1g	[1gg
4G	.	.	.
4c	.	.	.
4B-	4d	.	.
=85	=85	=85	=85
4A	4c	1a	2gg]
4G	8dL	.	.
.	8e-J	.	.
2A	4d	.	2ff#X
.	4c	.	.
=86	=86	=86	=86
2G	4B-	2d	4gg
.	4A	.	8ffL
.	.	.	8ee-J
2r	4B-	2r	4dd
.	4c	.	4ee-X
=87	=87	=87	=87
1r	4d	4b-	2.ff
.	4c	8aL	.
.	.	8gJ	.
.	4d	4f	.
.	4e-	4g	8ee-L
.	.	.	8ddJ
=88	=88	=88	=88
1r	4f	4a	4cc
.	8e-L	4b-	4dd
.	8dJ	.	.
.	4c	4cc	4ee-
.	4d	8b-L	4ff
.	.	8aJ	.
=89	=89	=89	=89
2r	4e-	4g	4gg
.	8dL	4a	8ffL
.	8cJ	.	8ee-J
2BB-	4B-	[2b-	4dd
.	[4F	.	8ee-L
.	.	.	8ddJ
=90	=90	=90	=90
2.F	8FL]	4b-]	2.cc
.	8G	.	.
.	8A	8aL	.
.	8B-J	8gJ	.
.	2c	[2a	.
4E-	.	.	8ddL
.	.	.	8ee-J
!!LO:LB:g=original
=91	=91	=91	=91
1D	2.F	4a]	[1ff
.	.	8b-L	.
.	.	8ccJ	.
.	.	4b-	.
.	4F	4a	.
=92	=92	=92	=92
1E-	1G	4g	4ff]
.	.	4f#X	8ee-L
.	.	.	8ddJ
.	.	2g	4cc
.	.	.	4b-
=93	=93	=93	=93
1F	1A	2.dd	4a
.	.	.	8aaL
.	.	.	8ggJ
.	.	.	4ff
.	.	4cc	[4ee-
=94	=94	=94	=94
4BB-	1B-	1b-	4ee-]
8CL	.	.	2dd
8DJ	.	.	.
[2E-	.	.	.
.	.	.	8ccL
.	.	.	8b-J
=95	=95	=95	=95
4E-]	4F	1cc	4a
8FL	4c	.	4g
8GJ	.	.	.
4F	[2f	.	2a
4E-	.	.	.
=96	=96	=96	=96
4D	4f]	1dd	[1b-
8E-L	4e-	.	.
8FJ	.	.	.
4G	2d	.	.
4F	.	.	.
=97	=97	=97	=97
4En	2r	2.g	4b-]
8F#XL	.	.	8aL
8GJ	.	.	8b-J
4A	2A	.	[2cc
4G	.	8f#XL	.
.	.	8gJ	.
=98	=98	=98	=98
4F#X	2.d	4a	4cc]
4E	.	8ccL	4aa
.	.	8b-J	.
2F#	.	8aL	[2dd
.	.	8gJ	.
.	4c	[4a	.
!!LO:LB:g=original
=99	=99	=99	=99
2.G	1BX	4a]	4dd]
.	.	4g	4ee
.	.	2d	[2ff
4G#X	.	.	.
=100	=100	=100	=100
4A	1c#X	2.a	2ff]
8B-L	.	.	.
8AJ	.	.	.
4Gn	.	.	[2ee
4A	.	4g	.
=101	=101	=101	=101
4B-	1d	1f	4ee]
4F	.	.	8ddL
.	.	.	8cc#XJ
4B-	.	.	[2dd
4D	.	.	.
=102	=102	=102	=102
2E-	4G	1g	2dd]
.	4A	.	.
2EX	4B-	.	[2gg
.	8cL	.	.
.	8B-J	.	.
=103	=103	=103	=103
2.F	4A	1a	2gg]
.	8BXL	.	.
.	8c#XJ	.	.
.	4d	.	[2ff
8EL	4c	.	.
8FJ	.	.	.
=104	=104	=104	=104
[1G	1B-X	4d	2ff]
.	.	8gL	.
.	.	8fJ	.
.	.	8gL	4ee
.	.	8aJ	.
.	.	4b-	4dd
=105	=105	=105	=105
4G]	[1A	4e	2cc#X
8FL	.	2a	.
8EJ	.	.	.
4F	.	.	[2dd
4D	.	8gL	.
.	.	8fJ	.
!!LO:LB:g=original
=106	=106	=106	=106
2.A	1A_	4e	2dd]
.	.	4d	.
.	.	2e	2cc#X
4G	.	.	.
=107	=107	=107	=107
1F	4A]	4d	4dd
.	8dL	8fL	4a
.	8c#XJ	8eJ	.
.	[2d	8fL	4dd
.	.	8gJ	.
.	.	[4a	4cc
=108	=108	=108	=108
1G	4d]	4a]	[1b-
.	4B-	8gL	.
.	.	8f#XJ	.
.	4e-	4g	.
.	[4d	4b-	.
=109	=109	=109	=109
1A	4d]	2e	8b-L]
.	.	.	8aJ
.	8c#XL	.	4ee
.	8BXJ	.	.
!!LO:MO:ori
*	*	*clefC1	*
!!LO:MO:end
.	2c#	4r	4aa
.	.	[4ee	[4gg
=110	=110	=110	=110
[2D/	2d	4ee]	4gg]
.	.	4a	8ffL
.	.	.	8eeJ
8DL]	[2A	[2dd	4ff
8C	.	.	.
8BB-	.	.	4dd
8AAJ	.	.	.
=111	=111	=111	=111
[2GG	4A]	4dd]	1bb-
.	4D	8eeL	.
.	.	8ffJ	.
8GGL]	[2G	4ee	.
8AA	.	.	.
8BB-	.	4dd	.
8GGJ	.	.	.
=112	=112	=112	=112
[1AA	4G]	4cc#X	2ee
.	8FL	2a	.
.	8EJ	.	.
.	4F	.	[2dd
.	4D	8gL	.
.	.	8fJ	.
!!LO:LB:g=original
=113	=113	=113	=113
1AA]	4E	4g	2dd]
.	8FL	[4e	.
.	8GJ	.	.
.	[2A	8eL]	2cc#X
.	.	8fJ	.
.	.	[4g	.
=114	=114	=114	=114
1D	4A]	4g]	4dd
!!LO:MO:ori
!!LO:TX:a:t=XIXb
*	*	*clefC3	*
!!LO:MO:mod
!! !!LO:TX:a:t=Second subject
!!LO:MO:end
.	4d	8fL	[4a
.	.	8gJ	.
.	2B-	8fL	4a]
.	.	8e	.
.	.	8d	4g
.	.	8c#XJ	.
=115	=115	=115	=115
4DD	4A	8dL	4f
.	.	8A	.
4r	4r	8d	4r
.	.	8eJ	.
2r	2r	8fL	2r
.	.	8e	.
.	.	8d	.
.	.	8fJ	.
=116	=116	=116	=116
1r	1r	8eL	1r
.	.	8A	.
.	.	8e	.
.	.	8fJ	.
.	.	8gL	.
.	.	16fL	.
.	.	16eJ	.
.	.	8f	.
.	.	8gJ	.
=117	=117	=117	=117
1r	1r	8aL	1r
.	.	8g	.
.	.	8f	.
.	.	8gJ	.
.	.	[2a	.
=118	=118	=118	=118
1r	1r	8aL]	1r
.	.	16gL	.
.	.	16f#XJ	.
.	.	8g	.
.	.	8aJ	.
.	.	[2b-	.
!!LO:LB:g=original
=119	=119	=119	=119
1r	1r	8b-L]	1r
.	.	8a	.
.	.	8g	.
.	.	8fJ	.
.	.	8eL	.
.	.	8d	.
.	.	8e	.
.	.	8gJ	.
=120	=120	=120	=120
1r	1r	8fL	1r
.	.	8e	.
.	.	8d	.
.	.	8cJ	.
.	.	8BXL	.
.	.	8A	.
.	.	8B	.
.	.	8dJ	.
=121	=121	=121	=121
1r	1r	8cL	4r
.	.	8BX	.
.	.	8A	8ccL
.	.	8G#XJ	8ddJ
.	.	4A	8ccL
.	.	.	8bX
.	.	4B	8a
.	.	.	8g#XJ
=122	=122	=122	=122
1r	1r	4.c	8aL
.	.	.	8e
.	.	.	8a
.	.	8d	8bXJ
.	.	4e	8ccL
.	.	.	8b
.	.	4f#X	8a
.	.	.	8ccJ
=123	=123	=123	=123
1r	1r	4g	8bXL
.	.	.	8e
.	.	2g#X	8b
.	.	.	8ccJ
.	.	.	8ddL
.	.	.	16ccL
.	.	.	16bJ
.	.	[4a	8cc
.	.	.	8ddJ
=124	=124	=124	=124
1r	1r	8aL]	8eeL
.	.	8f	8dd
.	.	8e	8cc
.	.	8dJ	8ddJ
.	.	8cL	[2ee
.	.	8BX	.
.	.	8A	.
.	.	8GJ	.
!!LO:LB:g=original
=125	=125	=125	=125
1r	1r	8FL	8ee]L
.	.	8g	16ddL
.	.	.	16cc#XJ
.	.	8f	8dd
.	.	8eJ	8eeJ
.	.	8dL	[2ff
.	.	8c	.
.	.	8BX	.
.	.	8AJ	.
=126	=126	=126	=126
1r	1r	4G#X	8ff]L
.	.	.	8ee
.	.	2A	8dd
.	.	.	8ccJ
.	.	.	8bXL
.	.	.	8a
.	.	4G#	8b
.	.	.	8ddJ
=127	=127	=127	=127
1r	1r	4A	8ccL
.	.	.	8aa
.	.	4BX	8gg
.	.	.	8ffJ
.	.	4c	8eeL
.	.	.	8dd
.	.	4c#X	8ee
.	.	.	8ggJ
=128	=128	=128	=128
4r	1r	4d	8ffL
.	.	.	8ee
8FL	.	2a	8dd
8GJ	.	.	8cc#XJ
8FL	.	.	4dd
8E	.	.	.
8D	.	[4g	4ee
8C#XJ	.	.	.
=129	=129	=129	=129
8DL	1r	4g]	2.a
8AA	.	.	.
8D	.	8fL	.
8EJ	.	8eJ	.
8FL	.	4d	.
8E	.	.	.
8D	.	[4g	4bX
8FJ	.	.	.
=130	=130	=130	=130
8EL	1r	8gL]	4cc
8AA	.	8f	.
8E	.	8g	2cc#X
8FJ	.	8aJ	.
8GL	.	8b-L	.
16FL	.	16aL	.
16EJ	.	16gJJ	.
8F	.	8aL	8ddL
8GJ	.	8b-J	8eeJ
!!LO:LB:g=original
=131	=131	=131	=131
8AL	1r	4c#X	8ffL
8G	.	.	8bb-
8F	.	[4d	8aa
8GJ	.	.	8ggJ
[2A	.	8dL]	8ffL
.	.	8c#	8ee
.	.	8f	8dd
.	.	8eJ	8ccJ
=132	=132	=132	=132
8AL]	1r	[2d	8b-L
16GL	.	.	8ccc
16F#XJ	.	.	.
8G	.	.	8bb-
8AJ	.	.	8aaJ
[2B-	.	8dL]	8ggL
.	.	8a	8ff
.	.	8g	8ee
.	.	8fJ	8ddJ
=133	=133	=133	=133
8B-L]	1r	4e	4cc#X
8A	.	.	.
8G	.	4a	2dd
8FJ	.	.	.
8EL	.	4g	.
8D	.	.	.
8E	.	4b-	4cc#
8GJ	.	.	.
=134	=134	=134	=134
8FL	1r	2.a	4dd
8E	.	.	.
8D	.	.	4ee
8CJ	.	.	.
8BBXL	.	.	2ff
8AA	.	.	.
8BB	.	4g#X	.
8DJ	.	.	.
=135	=135	=135	=135
2C	4r	2a	4ee
.	8cL	.	4aa
.	8dJ	.	.
4r	8cL	4r	4ee
.	8BX	.	.
4E	8A	4e	[4dd
.	8G#XJ	.	.
=136	=136	=136	=136
2AA	8AL	2e	4dd]
.	8E	.	.
.	8A	.	8ccL
.	8BXJ	.	8ddJ
4r	8cL	4r	4ee
.	8B	.	.
[4A	8A	4a	[4ff
.	8cJ	.	.
!!LO:LB:g=original
=137	=137	=137	=137
4A]	8BXL	4.dd	4ff]
.	8E	.	.
2G#X	8B	.	[2ee
.	8cJ	8cc	.
.	8dL	4bX	.
.	16cL	.	.
.	16BJ	.	.
[4A	8c	8aL	8ee]L
.	8dJ	8g#XJ	8bXJ
=138	=138	=138	=138
8AL]	8eL	4a	4cc
8F	8d	.	.
8E	8c	4r	4r
8DJ	8dJ	.	.
8CL	[2e	4r	2r
8BBX	.	.	.
8AA	.	4cc	.
8GGJ	.	.	.
=139	=139	=139	=139
8FFL	8eL]	2.a	1r
8G	16dL	.	.
.	16c#XJ	.	.
8F	8d	.	.
8EJ	8eJ	.	.
8DL	[2f	.	.
8C	.	.	.
8BBX	.	8g#XL	.
8AAJ	.	8aJ	.
=140	=140	=140	=140
4GG#X	8fL]	8bXL	1r
.	8e	8eeJ	.
4AA	8d	2a	.
.	8cJ	.	.
4E	8BXL	.	.
.	8A	.	.
4EE	8B	4g#X	.
.	8dJ	.	.
=141	=141	=141	=141
8AAL	2c	4a	1r
8A	.	.	.
8G	.	4r	.
8FJ	.	.	.
8EL	2c#X	2r	.
8D	.	.	.
8E	.	.	.
8GJ	.	.	.
=142	=142	=142	=142
4F	2.d	1r	8r
.	.	.	8aaL
4G	.	.	8gg
.	.	.	8ffJ
2A	.	.	8eeL
.	.	.	8dd
.	[4cn	.	8ee
.	.	.	8ggJ
!!LO:LB:g=original
=143	=143	=143	=143
2D	8cL]	8r	4ff#X
.	8B-	8ddL	.
.	8A	8cc	2gg
.	8GJ	8b-J	.
4r	[2d	8aL	.
.	.	8g	.
4D	.	8a	[4ff
.	.	8ccJ	.
=144	=144	=144	=144
2G	8dL]	4bX	8ffL]
.	8e	.	8gg
.	8d	2cc	8ff
.	8cJ	.	8eeJ
4r	4g	.	8ddL
.	.	.	8cc
4G	4r	[4b-	8dd
.	.	.	8ffJ
=145	=145	=145	=145
2C	8r	8b-L]	4ee
.	8cL	8gJ	.
.	8B-	4a	2ff
.	8AJ	.	.
4r	8GL	4b-	.
.	8F	.	.
4C	8G	[4g	8eeL
.	8B-J	.	8ddJ
=146	=146	=146	=146
4C#X	4.A	8gL]	4ee
.	.	8a	.
2D/	.	8g	4r
.	8A/	8fJ	.
.	8GL	8eL	2r
.	8FJ	8d	.
4C#	4E	8e	.
.	.	8gJ	.
=147	=147	=147	=147
2.D	4D	8fL	4r
.	.	8aJ	.
.	4A	4d	8ffL
.	.	.	8ggJ
.	2B-	2r	8ffL
.	.	.	8ee
4E	.	.	8dd
.	.	.	8cc#XJ
=148	=148	=148	=148
2F	4A	1r	8ddL
.	.	.	8a
.	8BXL	.	8dd
.	8c#XJ	.	8eeJ
2D	[2d	.	8ffL
.	.	.	8ee
.	.	.	8dd
.	.	.	8ffJ
!!LO:LB:g=original
=149	=149	=149	=149
2.A	4d]	1r	8eeL
.	.	.	8a
.	8c#XL	.	8ee
.	8dJ	.	8ffJ
.	[2e	.	8ggL
.	.	.	16ffL
.	.	.	16eeJ
4G	.	.	8ff
.	.	.	8ggJ
=150	=150	=150	=150
1F	8eL]	1r	8aaL
.	8AJ	.	8gg
.	[4d	.	8ff
.	.	.	8ggJ
.	8dL]	.	[2aa
.	8c	.	.
.	8B-	.	.
.	8AJ	.	.
=151	=151	=151	=151
1G	8B-L	1r	8aaL]
.	8dJ	.	16ggL
.	.	.	16ff#XJJ
.	[4e-	.	8ggL
.	.	.	8aaJ
.	8e-L]	.	[2bb-
.	8d	.	.
.	8c#X	.	.
.	8dJ	.	.
=152	=152	=152	=152
1A	4c#X	1r	8bb-L]
.	.	.	8aa
.	2d	.	8gg
.	.	.	8ffJ
.	.	.	8eeL
.	.	.	8dd
.	[4c	.	8ee
.	.	.	8ggJ
=153	=153	=153	=153
2D	4c]	1r	8ffL
.	.	.	8ee
.	8BXL	.	8dd
.	8AJ	.	8ccJ
2E	8G#XL	.	8bXL
.	8F#X	.	8a
.	8G#	.	8b
.	8BJ	.	8ddJ
=154	=154	=154	=154
4AA	8AL	1r	4cc
.	8e	.	.
4r	8d	.	8bXL
.	8cJ	.	8aJ
2r	8BXL	.	8g#XL
.	8A	.	8f#X
.	8B	.	8g#
.	8dJ	.	8bJ
!!LO:LB:g=original
=155	=155	=155	=155
8r	4c	1r	4e
8EL>	.	.	.
8D	4e	.	2a
8CJ	.	.	.
8BBXL	4d	.	.
8AA	.	.	.
8BB	4f	.	4g#X
8DJ	.	.	.
!!LO:MO:ori
*	*	*clefC1	*
!!LO:MO:end
=156	=156	=156	=156
8CL	4e	4r	4a
8BBX	.	.	.
8AA	4r	8ccL	2ee
8GG#XJ	.	8ddJ	.
4AA	2r	8ccL	.
.	.	8bX	.
4BB	.	8a	[4dd
.	.	8g#XJ	.
=157	=157	=157	=157
4C	2r	8aL	4dd]
.	.	8e	.
2F	.	8a	8ccL
.	.	8bXJ	8ddJ
.	2A	8ccL	4ee
.	.	8b	.
4F#X	.	8a	4dd#X
.	.	8ccJ	.
=158	=158	=158	=158
4G	[2e	8bXL	4ee
.	.	8e	.
2G#X	.	8b	4r
.	.	8ccJ	.
.	4.e]	8ddL	2r
.	.	16ccL	.
.	.	16bJ	.
[4A	.	8cc	.
.	8d	8ddJ	.
=159	=159	=159	=159
8AL]	1c	8eeL	1r
8E	.	8dd	.
8A	.	8cc	.
8BXJ	.	8ddJ	.
8cL	.	[2ee	.
8B	.	.	.
8A	.	.	.
8GJ	.	.	.
=160	=160	=160	=160
8F#XL	1d	8eeL]	1r
8A	.	16ddL	.
.	.	16cc#XJ	.
8BX	.	8dd	.
8c#XJ	.	8eeJ	.
8dnL	.	[2ff	.
8c	.	.	.
8Bn	.	.	.
8AJ	.	.	.
!!LO:LB:g=original
=161	=161	=161	=161
4G#X	1e	8ffL]	1r
.	.	8ee	.
2A	.	8dd	.
.	.	8ccJ	.
.	.	8bXL	.
.	.	8a	.
4G#	.	8b	.
.	.	8ddJ	.
=162	=162	=162	=162
4A	8AL	[1cc	1r
.	8a	.	.
4BX	8g	.	.
.	8fJ	.	.
4c	8eL	.	.
.	8d	.	.
4A	8e	.	.
.	8gJ	.	.
=163	=163	=163	=163
4D	[1f	8ccL]	1r
.	.	8dd	.
4E	.	8cc	.
.	.	8b-XJ	.
4F	.	8aL	.
.	.	8g	.
4D	.	8a	.
.	.	8ccJ	.
=164	=164	=164	=164
4G	8fL]	[1b-	1r
.	8g	.	.
4A	8f	.	.
.	8eJ	.	.
4B-	8dL	.	.
.	8c	.	.
4G	8d	.	.
.	8fJ	.	.
=165	=165	=165	=165
4C	4e	8b-L]	1r
.	.	8cc	.
4D	4r	8b-	.
.	.	8aJ	.
4E	2r	8gL	.
.	.	8f	.
4C	.	8g	.
.	.	8b-J	.
=166	=166	=166	=166
4F	1r	8aL	1r
.	.	8b-	.
4G	.	8a	.
.	.	8gJ	.
4A	.	8fL	.
.	.	8e	.
4F	.	8f	.
.	.	8aJ	.
!!LO:LB:g=original
=167	=167	=167	=167
2BB-	4r	8dL	1r
.	.	8eJ	.
.	8AL	[4f	.
.	8B-J	.	.
2C	8AL	8fL]	.
.	8G	8eJ	.
.	8F	[4b-	.
.	8EJ	.	.
=168	=168	=168	=168
2FF	8FL	4b-]	1r
.	8C	.	.
.	8F	8aL	.
.	8GJ	8gJ	.
4r	8AL	8fL	.
.	8G	8aJ	.
4F	8F	[4d	.
.	8AJ	.	.
=169	=169	=169	=169
4E	8GL	8dL]	2r
.	8C	8gJ	.
4E-	8G	4c	.
.	8AJ	.	.
!!LO:MO:ori
*	*	*clefC3	*
!!LO:MO:end
2D	8B-L	2d	2f
.	16AL	.	.
.	16GJ	.	.
.	8A	.	.
.	8B-J	.	.
=170	=170	=170	=170
[2A	8cL	4e	2.cc
.	8B-	.	.
.	8A	8fL	.
.	8B-J	8gJ	.
8AL]	[2c	4a	.
8G	.	.	.
8F	.	[4g	4b-
8EJ	.	.	.
=171	=171	=171	=171
[2F	8cL]	4g]	1a
.	16B-L	.	.
.	16AJ	.	.
.	8B-	8fL	.
.	8cJ	8eJ	.
8FL]	[2d	[2f	.
8D	.	.	.
8E	.	.	.
8FJ	.	.	.
=172	=172	=172	=172
4G	8dL]	8fL]	1b-
.	8c	8e-J	.
4D	8B-	[4f	.
.	8AJ	.	.
[2E-	8GL	8fL]	.
.	8F	8d	.
.	8G	8e-	.
.	8B-J	8gJ	.
!!LO:LB:g=original
=173	=173	=173	=173
8E-L]	[<1A	4.c	1cc
8F	.	.	.
8E-	.	.	.
8DJ	.	8d	.
8CL	.	[2e-	.
8BB-	.	.	.
8C	.	.	.
8E-J	.	.	.
=174	=174	=174	=174
[2D	8AL]	4e-]	[2f
.	8F	.	.
.	8G	8dL	.
.	8AJ	8cJ	.
8DL]	[2B-	[2d	8fL>]
8D	.	.	8f#
8E	.	.	8g
8F#XJ	.	.	8aJ
=175	=175	=175	=175
[2G	8B-L]	8dL]	[2b-
.	8c	8d	.
.	8B-	8e	.
.	8AJ	8f#XJ	.
8GL]	[2G	[2g	8b-L]
8Fn	.	.	8bn
8E-	.	.	8cc
8DJ	.	.	8ddJ
=176	=176	=176	=176
2C	4G]	8gL]	[1ee-
.	.	8dd	.
.	4G	8cc	.
.	.	8b-J	.
4r	[2c	8aL	.
.	.	8g	.
4C	.	8a	.
.	.	8ccJ	.
=177	=177	=177	=177
2D	8cL]	2.f#X	4ee-X]
.	8e-	.	.
.	8d	.	4a
.	8cJ	.	.
4r	8B-L	.	[2dd
.	8A	.	.
4D	8B-	4f#	.
.	8dJ	.	.
=178	=178	=178	=178
4E-	4G	8gL	2dd]
.	.	8a	.
2EX	8B-L	8g	.
.	8AJ	8fnJ	.
.	8GL	8eL	2cc#X
.	8FJ	8d	.
4AA	4E	8e	.
.	.	8gJ	.
!!LO:LB:g=original
=179	=179	=179	=179
4D	8DL<	4f#X	2dd
.	8d	.	.
4r	8c	2g	.
.	8B-J	.	.
2r	8AL	.	[2ccn
.	8G	.	.
.	8A	8f#L	.
.	8cJ	8aJ	.
=180	=180	=180	=180
4r	8B-L	8dL	4cc]
.	8e-J	8f#X	.
8BB-L	2d	8g	8b-L
8CJ	.	8f#J	8aJ
8BB-L	.	4g	4b-
8AA	.	.	.
8GG	4r	[4cc	4ee-
8FF#XJ	.	.	.
=181	=181	=181	=181
8GGL	1r	4cc]	4dd
8DD	.	.	.
8GG	.	4b-	8eenL
8AAJ	.	.	8ff#XJ
8BB-L	.	8r	[2gg
8AA	.	8ffnL	.
8GG	.	8ee-	.
8BB-J	.	8ddJ	.
=182	=182	=182	=182
8AAL	2r	8ccL	4gg]
8DD	.	8bX	.
8AA	.	8cc	[4ff
8BBXJ	.	8ddJ	.
8CL	4r	2g	8ffL]
16BBL	.	.	8ee-
16AAJ	.	.	.
8BB	[4F	.	8dd
8CJ	.	.	8ccJ
=183	=183	=183	=183
8DL	8FL]	2.dd	8bXL
8C	8E-	.	8aJ
8BBX	8D	.	4g
8CJ	8E-J	.	.
[2D/	8FL	.	2dd
.	8G	.	.
.	8A-X	4cc	.
.	8FJ	.	.
=184	=184	=184	=184
8DL]	[2G	1bX	2.gg
16CL	.	.	.
16BBXJ	.	.	.
8C	.	.	.
8DJ	.	.	.
[2E-	8GL]	.	.
.	8G	.	.
.	8BX	.	4ff
.	8dJ	.	.
!!LO:LB:g=original
=185	=185	=185	=185
8E-L]	8gL	1cc	1ee-
8D	8b-	.	.
8C	8a-X	.	.
8BB-XJ	8gJ	.	.
8AAL	4.f#X	.	.
8GG	.	.	.
8AA	.	.	.
8CJ	8g	.	.
=186	=186	=186	=186
4BBX	8a-XL	1dd	1ff
.	8G	.	.
2C	8F	.	.
.	8E-J	.	.
.	8DL	.	.
.	8C	.	.
[4BB-	8D	.	.
.	8FJ	.	.
=187	=187	=187	=187
8BB-L]	1En	4g	1gg
8C	.	.	.
8BB-	.	4a	.
8AAJ	.	.	.
8GGL	.	[2b-	.
8FF#X	.	.	.
8GG	.	.	.
8BB-J	.	.	.
=188	=188	=188	=188
8AAL	4F#X	4b-]	[1cc
8D	.	.	.
8C	4r	8aL	.
8BB-J	.	8gJ	.
8AAL	2r	8f#XL	.
8GG	.	8e	.
8AA	.	8f#	.
8CJ	.	8aJ	.
=189	=189	=189	=189
2BB-	8r	2d	8ccL]
.	8DL	.	8f#X
.	8E	.	8g
.	8F#XJ	.	8aJ
4r	[2G	2r	8b-L
.	.	.	8cc
4GG	.	.	8b-
.	.	.	8gJ
=190	=190	=190	=190
2C	8GL>]	8r	[1ee-
.	8G	8ddL	.
.	8A	8cc	.
.	8B-J	8b-J	.
4r	8cL	8aL	.
.	8d	8g	.
[4C	8c	8a	.
.	8B-J	8ccJ	.
!!LO:LB:g=original
=191	=191	=191	=191
8CL]	4A	1f#X	8ee-L]
8AA	.	.	8ee-
8BB-	4r	.	8dd
8CJ	.	.	8ccJ
8DL	2r	.	8b-L
8E-	.	.	8a
8D	.	.	8b-
8BB-J	.	.	8ddJ
=192	=192	=192	=192
4E-	4r	8gL	4.g
.	.	8fJ	.
4C	4B-	4e-	.
.	.	.	8a
2D	8AL	4d	4.f#X
.	8GJ	.	.
.	4A	[4c	.
.	.	.	8g
=193	=193	=193	=193
!!LO:MO:ori
!!LO:TX:a:t=XIXc
!!LO:MO:mod
!! !!LO:TX:a:t=Third subject (B-A-C-H)
!!LO:MO:end
2GG	2G	4c]	2g
.	.	4B-	.
!	!LO:TX:a:t=:mod=B:vg=1:color=crimson	!	!
2r	2B-	2r	2r
=194	=194	=194	=194
!	!LO:TX:a:t=:mod=A:vg=1:color=crimson	!	!
1r	2A	1r	1r
!	!LO:TX:a:t=:mod=C:vg=1:color=crimson	!	!
.	2c	.	.
=195	=195	=195	=195
!	!LO:TX:a:t=:mod=H:vg=1:color=crimson	!	!
1r	4.BX	2r	1r
.	8c#X	.	.
!	!	!LO:TX:a:t=:mod=b:vg=2:color=crimson	!
.	[2d	2f	.
=196	=196	=196	=196
!	!	!LO:TX:a:t=:mod=a:vg=2:color=crimson	!
1r	4.d]	2e	1r
.	16c#XLL	.	.
.	16BXJJ	.	.
!	!	!LO:TX:a:t=:mod=c:vg=2:color=crimson	!
.	2c#m	2g	.
=197	=197	=197	=197
!	!	!LO:TX:a:t=:mod=h:vg=2:color=crimson	!
1r	2d	4.f#X	1r
.	.	8g#X	.
.	4r	[2a	.
.	4d#X	.	.
!!LO:LB:g=original
=198	=198	=198	=198
1r	4e	4.a]	1r
.	4BX	.	.
.	.	16g#XLL	.
.	.	16f#XJJ	.
.	4e	2g#	.
.	4d	.	.
=199	=199	=199	=199
1r	2c	4a	1r
.	.	4e	.
.	4r	4a	.
.	4c#X	4g	.
=200	=200	=200	=200
1r	4d	2f	1r
.	4A	.	.
.	4d	4r	.
.	4cn	4f#X	.
=201	=201	=201	=201
1r	4.B-	4g	2r
.	.	4d	.
.	8A	.	.
!	!	!	!LO:TX:a:t=:mod=B:vg=3:color=crimson
.	8GL	4g	2b-
.	8A	.	.
.	8B-	4fn	.
.	8GJ	.	.
=202	=202	=202	=202
!	!	!	!LO:TX:a:t=:mod=A:vg=3:color=crimson
1r	8cL	4e	2a
.	8B-	.	.
.	8A	8f#XL	.
.	8GJ	8gJ	.
!	!	!	!LO:TX:a:t=:mod=C:vg=3:color=crimson
.	8F#XL	[2a	2cc
.	8E	.	.
.	8F#	.	.
.	8DJ	.	.
=203	=203	=203	=203
!	!	!	!LO:TX:a:t=:mod=H:vg=3:color=crimson
2r	4G	4a]	4.bX
.	4E	4g	.
.	.	.	8cc#X
!LO:TX:a:t=:mod=b:vg=4:color=crimson	!	!	!
2F	4Fn	4a	[2dd
.	8GL	4d	.
.	8AJ	.	.
!!LO:LB:g=original
=204	=204	=204	=204
!LO:TX:a:t=:mod=a:vg=4:color=crimson	!	!	!
2E	8B-L>	4.g	4.dd]
.	8A	.	.
.	8G	.	.
.	8AJ	8f	16cc#XLL
.	.	.	16bXJJ
!LO:TX:a:t=:mod=c:vg=4:color=crimson	!	!	!
2G	8B-L	2e	2cc#
.	8EJ	.	.
.	[4A	.	.
=205	=205	=205	=205
!LO:TX:a:t=:mod=h:vg=4:color=crimson	!	!	!
4.F#X	4A]	4d	4dd
.	2d	4r	4r
8G#X	.	.	.
[2A	.	2r	4r
.	4c	.	4dd#X
=206	=206	=206	=206
4.A]	4BX	2r	4ee
.	[2.e	.	4bX
16G#XLL	.	.	.
16F#XJJ	.	.	.
2G#	.	4r	4ee
.	.	[4bX	4dd
=207	=207	=207	=207
2A	4e]	4b]	2cc
.	4r	4e	.
4r	2r	4a	2cc#X
4A	.	4g	.
=208	=208	=208	=208
4B-	1r	2.f	4dd
4F	.	.	4a
4B-	.	.	[2dd
4A	.	8gL	.
.	.	8fJ	.
=209	=209	=209	=209
4G#X	1r	[2e	4dd]
4E	.	.	8ccL
.	.	.	8bXJ
4A	.	8eL]	[2cc
.	.	8d	.
4G	.	8e-	.
.	.	8cJ	.
=210	=210	=210	=210
4F#X	2r	2.d	4cc]
4D	.	.	8b-L
.	.	.	8aJ
!	!LO:TX:a:t=:mod=B:vg=5:color=crimson	!	!
[2G	2B-	.	4b-
.	.	8enL	4g
.	.	8dJ	.
!!LO:LB:g=original
=211	=211	=211	=211
!	!LO:TX:a:t=:mod=A:vg=5:color=crimson	!	!
2G]	2A	4c#X	4a
.	.	4e	2aa
!	!LO:TX:a:t=:mod=C:vg=5:color=crimson	!	!
2F#X	2c	[2a	.
.	.	.	[4dd
=212	=212	=212	=212
!	!LO:TX:a:t=:mod=H:vg=5:color=crimson	!	!
2G	4.BX	8aL]	4dd]
.	.	8dJ	.
.	.	4g	4ee
.	8c#X	.	.
4r	[2d	2r	2ff
4G#X	.	.	.
=213	=213	=213	=213
4A	4.d]	2r	[2ee
4E	.	.	.
.	16c#XLL	.	.
.	16BXJJ	.	.
!	!	!LO:TX:a:t=:mod=b:mirror:vg=5:color=orange	!
4A	2c#	2e	8eeL]
.	.	.	8cc#X
4Gn	.	.	8dd
.	.	.	8eeJ
=214	=214	=214	=214
!	!	!LO:TX:a:t=:mod=a:mirror:vg=5:color=orange	!
4F	4.d	2f	2.a
4D	.	.	.
.	8cn	.	.
!	!	!LO:TX:a:t=:mod=c:mirror:vg=5:color=orange	!
[2G	4BX	2d	.
.	4A	.	8gL
.	.	.	8f#XJ
=215	=215	=215	=215
!	!	!LO:TX:a:t=:mod=h:mirror:vg=5:color=orange	!
8GL]	[2B-X	4.e-	[1g
8A	.	.	.
8G	.	.	.
8FJ	.	8d	.
2E	8B-L]	[2c#X	.
.	8A	.	.
.	8B-	.	.
.	8GJ	.	.
=216	=216	=216	=216
8FL	[2A	2c#]	2g]
8G	.	.	.
8F	.	.	.
8EJ	.	.	.
2D	8AL]	[2d	8fL
.	8B-	.	8eJ
.	8A	.	4f
.	8G#XJ	.	.
!!LO:LB:g=original
=217	=217	=217	=217
4AA	4A	4d]	4e
2A	4r	4c#X	4r
!	!	!	!LO:TX:a:t=:mod=B:vg=6:color=crimson
.	4r	4d	2b-
4G	4B-	4e	.
=218	=218	=218	=218
!LO:TX:a:t=:mod=b:vg=7:color=crimson	!	!	!LO:TX:a:t=:mod=A:vg=6:color=crimson
2F	4c	4f	2a
.	4d	8eL	.
.	.	8fJ	.
!LO:TX:a:t=:mod=a:vg=7:color=crimson	!	!	!LO:TX:a:t=:mod=C:vg=6:color=crimson
2E	4e	[2g	2cc
.	8fL	.	.
.	8eJ	.	.
=219	=219	=219	=219
!LO:TX:a:t=:mod=c:vg=7:color=crimson	!	!	!LO:TX:a:t=:mod=H:vg=6:color=crimson
2G	[2d	8gL]	4.bX
.	.	8f#X	.
.	.	8g	.
.	.	8b-XJ	8cc#X
!LO:TX:a:t=:mod=h:vg=7:color=crimson	!	!	!
4.F#X	8dL]	[2a	[2dd
.	8c#X	.	.
.	8d	.	.
8G#X	8fJ	.	.
=220	=220	=220	=220
[1A	8eL	2a]	4.dd]
.	8dJ	.	.
.	2e	.	.
.	.	.	16cc#XLL
.	.	.	16bXJJ
.	.	4g	8cc#L
.	.	.	8dd#XJ
.	4BX	4f#X	4dd#sSsS
=221	=221	=221	=221
4.A]	1BX	[1e	4ee
.	.	.	4bX
16G#XLL	.	.	.
16F#XJJ	.	.	.
2G#	.	.	4ee
.	.	.	4dd
!!LO:LB:g=original
=222	=222	=222	=222
4A	4.A/	4e]	2cc
4r	.	4e	.
.	16GLL	.	.
.	16FJJ	.	.
!LO:TX:a:t=:mod=b:mirror:vg=8:color=orange	!	!	!
2AA	4.E	4a	2cc#X
.	.	[4g	.
.	16DLL	.	.
.	16EJJ	.	.
=223	=223	=223	=223
!LO:TX:a:t=:mod=a:mirror:vg=8:color=orange	!	!	!
2BB-	4D	8gL]	[2dd
.	.	8f#X	.
.	8EL	8g	.
.	8F#XJ	8aJ	.
!LO:TX:a:t=:mod=c:mirror:vg=8:color=orange	!	!	!
2GG	4G	4b-	8ddL]
.	.	.	8ff
.	4F	4bX	8ee-
.	.	.	8ddJ
=224	=224	=224	=224
!LO:TX:a:t=:mod=h:mirror:vg=8:color=orange	!	!	!
4.AA-	8E-L	[2cc	8ccL
.	8DJ	.	8gg
.	4C	.	8ff
8GG	.	.	8ee-J
[2FF#X	4D	4.cc]	8ddL
.	.	.	8ccJ
.	[4E-X	.	[4dd-X
.	.	8b-	.
=225	=225	=225	=225
2FF#]	8E-L]	4.a	8dd-L]
.	8DJ	.	8bXJ
!	!LO:TX:a:t=:mod=(b:vg=11:color=crimson	!	!
.	[4E-	.	2cc
!	!	!LO:TX:a:t=:mod=(b:vg=13:color=crimson	!
.	.	8a-	.
!	!	!LO:TX:a:t=:mod=a:vg=13:color=crimson	!
2GG	8E-]L	[2g	.
!	!LO:TX:a:t=:mod=a:vg=11:color=crimson	!	!
.	8DJ	.	.
!	!LO:TX:a:t=:mod=c:vg=11:color=crimson	!	!
!	!LO:TX:a:t=:mod=(b:vg=12:color=crimson	!	!
.	[4F	.	4b
=226	=226	=226	=226
2C	4F]	2g]	4.cc
!	!LO:TX:a:t=:mod=h):vg=11:color=crimson	!	!
!	!LO:TX:a:t=:mod=a:vg=12:color=crimson	!	!
.	[4En	.	.
.	.	.	16b-XLL
.	.	.	16aJJ
!	!	!LO:TX:a:t=:mod=c:vg=13:color=crimson	!
!	!	!LO:TX:a:t=:mod=B:vg=9:color=crimson	!
4r	4E]	2b-	8gL
.	.	.	8eJ
!	!LO:TX:a:t=:mod=c:vg=12:color=crimson	!	!
4C#X	[4G	.	[4ee
!!LO:LB:g=original
=227	=227	=227	=227
!	!	!LO:TX:a:t=:mod=h):vg=13:color=crimson	!
!	!	!LO:TX:a:t=:mod=A:vg=9:color=crimson	!
2D	4G]	2a	8eeL]
.	.	.	16ddL
.	.	.	16cc#XJJ
!	!LO:TX:a:t=:mod=h):vg=12:color=crimson	!	!
.	[4F#X	.	8ddL
.	.	.	16ccL
.	.	.	16bXJJ
!	!	!LO:TX:a:t=:mod=C:vg=9:color=crimson	!
4r	8F#]L	2cc	4a
.	8G#XJ	.	.
4D#X	[4A/	.	4r
=228	=228	=228	=228
!	!	!LO:TX:a:t=:mod=H:vg=9:color=crimson	!
8EL	2A/_	4.bX	1r
16DL	.	.	.
16EJJ	.	.	.
[4F	.	.	.
.	.	8cc#X	.
8FL]	8AL]	[2dd	.
8BBX	16G#XL	.	.
.	16F#XJJ	.	.
8E	[4G#	.	.
8DJ	.	.	.
=229	=229	=229	=229
8C#XL	4G#]	4.dd]	2r
8BBXJ	.	.	.
4AA	8AL	.	.
.	8EJ	16cc#XLL	.
.	.	16bXJJ	.
4r	8AL	2cc#	4r
.	16B-L	.	.
.	16AJ	.	.
4AA	8G	.	[4aa
.	8AJ	.	.
!!LO:MO:ori
*	*	*clefC1	*
!!LO:MO:end
=230	=230	=230	=230
[1D	8B-L	8ddL	8aaL]
.	8d	16eeL	16ggL
.	.	16ffJJ	16aaJJ
.	8G	2gg	[4bb-
.	8AJ	.	.
.	8B-L	.	8bb-L]
.	8G	.	8ee
.	8E	4cc#X	8aa
.	16FL	.	8ggJ
.	16GJJ	.	.
!!LO:LB:g=original
=231	=231	=231	=231
8DL]	4A/	8ddL	8ffL
16EL	.	8aJ	16eeL
16FJ	.	.	16ddJJ
8E	2G	4b-	8cc#XL
8DJ	.	.	8ddJ
!!LO:MO:ori
*	*	*clefC3	*
!!LO:MO:end
8C#XL	.	[2a	8eeL
8AA	.	.	16ddL
.	.	.	16eeJJ
8D	[4F	.	8ffL
8CJ	.	.	8eeJ
=232	=232	=232	=232
4BB-	8FL]	8aL]	4.dd
.	16EL	8g	.
.	16DJJ	.	.
4AA	[4A/	8f	.
.	.	8eJ	8cc#X
2BB-	4A/]	4d	8ddL
.	.	.	16eeL
.	.	.	16ffJJ
.	4G	4r	8eeL
.	.	.	8ddJ
=233	=233	=233	=233
4AA	4A	8r	4cc#X
.	.	8eL	.
4r	4r	8f	4r
.	.	8gJ	.
2r	2r	8fL	8r
.	.	8e	8eeL
.	.	8d	8ff
.	.	8c#XJ	8ggJ
=234	=234	=234	=234
2r	1r	8dL	8ffL
.	.	8A	8ee
.	.	8d	8dd
.	.	8eJ	8cc#XJ
2D	.	8fL	[2dd
.	.	8e	.
.	.	8d	.
.	.	8fJ	.
!!LO:LB:g=original
=235	=235	=235	=235
2.A	2r	8eL	4dd]
.	.	8A	.
.	.	8e	8cc#XL
.	.	8fJ	8ddJ
!	!LO:TX:a:t=:mod=B:vg=10:color=crimson	!	!
.	2B-	8gL	[2ee
.	.	16fL	.
.	.	16eJ	.
4G	.	8f	.
.	.	8gJ	.
=236	=236	=236	=236
!	!LO:TX:a:t=:mod=A:vg=10:color=crimson	!	!
1F	2A	8aL	4ee]
.	.	8g	.
.	.	8f	8ddL
.	.	8gJ	8eeJ
!	!LO:TX:a:t=:mod=C:vg=10:color=crimson	!	!
.	2c	[2a	8ffL
.	.	.	8gg
.	.	.	8aa
.	.	.	8ffJ
=237	=237	=237	=237
!	!LO:TX:a:t=:mod=H:vg=10:color=crimson	!	!
1G	4.BX	8aL]	4dd
.	.	16gL	.
.	.	16f#XJJ	.
.	.	8gL	8eeL
.	8c#X	8aJ	8ff#XJ
.	[2d	[2b-	8ggL
.	.	.	8aa
.	.	.	8bb-
.	.	.	8ggJ
=238	=238	=238	=238
1A	4.d]	8b-L]	4ee
.	.	8a	.
.	.	8g	4r
.	16c#XLL	8fJ	.
.	16BXJJ	.	.
.	2c#	8eL	2r
.	.	8d	.
.	.	8e	.
.	.	8gJ	.
=239	=239	=239	=239
4D	8dL	4f	1ryy
.	8e	.	.
4ryy	8d	4ryy	.
.	8cnJ	.	.
2ryy	8BXL	2ryy	.
.	8A	.	.
.	8B	.	.
.	8dJ	.	.
!!!ONB: Unfinished
=-	=	=-	=-
*-	*-	*-	*-
!!!RDF**kern: > = above
!!!RDF**kern: < = below
!!!system-decoration: [(s1,s2,s3,s4)]
!!!URL-pdf: https://vmirror.imslp.org/files/imglnks/usimg/8/88/IMSLP504269-PMLP05843-BGA-25.1.pdf#page=93 @{SMS1}, page 93
!!!URL-pdf: https://s9.imslp.org/files/imglnks/usimg/1/1d/IMSLP469177-PMLP5843-Bach,_J.S._-_The_Art_of_the_Fugue.pdf#page=105 @{SMS2}, page 105
!!!URL-youtube: https://www.youtube.com/watch?v=OMtjlaDEMdI&t=4652s Netherlands Bach Society/Malinowski
!!!URL-youtube: https://www.youtube.com/watch?v=N6sUlZa-IrU&t=4652s Netherlands Bach Society
!!!SMS: @{SMS1}
!!!SMS1: Bach-Gesellschaft Ausgabe, Band 25.1 Leipzig: Breitkopf und Härtel, 1878. Plate B.W. XXV (1).
!!!SMS2: Bach-Gesellschaft Ausgabe, Band 47 Leipzig: Breitkopf und Härtel, 1926. Plate B.W. XLVII.
!!!PED: Wilhelm Rust
!!!PED-ODT: 1822-1892
!!!ENC: Craig Stuart Sapp
!!!END: 2024/03/26
!!!EED: Craig Stuart Sapp
!!!EEV: 2024/03/28
!!!title: @{OPR} (@{SCA}), @{OTL}
!!!filter-bach: msearch -i "-m2 +m3 -m2" -c crimson -m Z | msearch -i "+m2 -m3 +m2" -c orange -m N
!!!filter-keyboard: autostem -r | satb2gs | shed -e s/clefC./clefG2/I
!!!filter-modern: modori -m | autostem -r
